X:1
T: Lager Beer
C:
R:Strathspey
Q: 128
K:Bm
M:4/4
L:1/16
|:BB3 d3e f4 f3^g|a3f e3d cA3 A3c|BB3 d3e f4 fb3|f3e d3c B4-B2f2|
BB3 d3e f4 f3^g|a3f e3d cA3 A3c|BB3 d3e f4 fb3|f3e d3c B4-B2f2|
bb3 f3d B3d f3^g|aa3 e3c A3c e3a|bb3 f3d B3d f3b|f3e d3c B4-B2f2|
bb3 f3d B3d f3^g|aa3 e3c A3c e3a|bb3 f3d B3d f3b|f3e d3c B4-B4:|
